src/ui/src/assets/icons/search.svg

<svg height="32px" version="1.1" viewBox="0 0 32 32" width="32px" xmlns="http://www.w3.org/2000/svg" xmlns:sketch="http://www.bohemiancoding.com/sketch/ns" xmlns:xlink="http://www.w3.org/1999/xlink">

  <g fill-rule="evenodd" id="Page-1" stroke="none" stroke-width="1">
    <g id="icon-111-search">
      <path d="M19.4271164,21.4271164 C18.0372495,22.4174803 16.3366522,23 14.5,23 C9.80557939,23 6,19.1944206 6,14.5 C6,9.80557939 9.80557939,6 14.5,6 C19.1944206,6 23,9.80557939 23,14.5 C23,16.3366522 22.4174803,18.0372495 21.4271164,19.4271164 L27.0119176,25.0119176 C27.5621186,25.5621186 27.5575313,26.4424687 27.0117185,26.9882815 L26.9882815,27.0117185 C26.4438648,27.5561352 25.5576204,27.5576204 25.0119176,27.0119176 L19.4271164,21.4271164 L19.4271164,21.4271164 Z M14.5,21 C18.0898511,21 21,18.0898511 21,14.5 C21,10.9101489 18.0898511,8 14.5,8 C10.9101489,8 8,10.9101489 8,14.5 C8,18.0898511 10.9101489,21 14.5,21 L14.5,21 Z" id="search"/>
    </g>
  </g>
</svg>

<svg height="32" viewBox="0 0 32 32" width="32" xmlns="http://www.w3.org/2000/svg">
  <path d="M19.427 21.427c-1.39.99-3.09 1.573-4.927 1.573C9.806 23 6 19.194 6 14.5S9.806 6 14.5 6 23 9.806 23 14.5c0 1.837-.583 3.537-1.573 4.927l5.585 5.585c.55.55.546 1.43 0 1.976l-.024.024c-.544.544-1.43.546-1.976 0l-5.585-5.585zM14.5 21c3.59 0 6.5-2.91 6.5-6.5S18.09 8 14.5 8 8 10.91 8 14.5s2.91 6.5 6.5 6.5z" fill-rule="evenodd"/>
</svg>
